X: 480
T: Xiu hebao
%%abc-version 2.0
%%abcx-abcm2ps-target-version 5.9.1 (29 Sep 2008)
%%abc-creator hum2abc beta
%%abcx-conversion-date 2013/10/02 07:52:30
%%abc-edited-by Helmut Schaffrath
%%humdrum-veritas 1336108235
%%humdrum-veritas-data 1168623992
%%continueall 1
%%barnumbers 0
L: 1/8
M: 4/4
K: Bb
b2b df4 [I:setbarnb 1]| 
b c' f' c'b4 | 
b c'f'2f' d' c' b | 
b a g df4 | 
c' f' g b c' f' d' c' | 
b2c' gf2f d | 
c'2b c' f' c' b a | 
g f/ g/ f cB4 | 
g f/ g/ c df2f d | 
c' c' b c' f' c' b a | 
g f/ g/ f cB4 |]  



